vendor/shopware/storefront/Resources/app/storefront/dist/assets/icon/default/tablet.svg

<svg xmlns="http://www.w3.org/2000/svg" width="24" height="24" viewBox="0 0 24 24">
  <path fill="#758CA3" fill-rule="evenodd" d="M20,11 C20.5522847,11 21,11.4477153 21,12 C21,12.5522847 20.5522847,13 20,13 C19.4477153,13 19,12.5522847 19,12 C19,11.4477153 19.4477153,11 20,11 Z M3,3 L21,3 C22.6568542,3 24,4.34314575 24,6 L24,18 C24,19.6568542 22.6568542,21 21,21 L3,21 C1.34314575,21 2.02906125e-16,19.6568542 0,18 L0,6 C-2.02906125e-16,4.34314575 1.34314575,3 3,3 Z M3,5 C2.44771525,5 2,5.44771525 2,6 L2,18 C2,18.5522847 2.44771525,19 3,19 L21,19 C21.5522847,19 22,18.5522847 22,18 L22,6 C22,5.44771525 21.5522847,5 21,5 L3,5 Z"/>
</svg>

<svg xmlns="http://www.w3.org/2000/svg" width="24" height="24" viewBox="0 0 24 24"><path fill="#758CA3" fill-rule="evenodd" d="M20 11c.5523 0 1 .4477 1 1s-.4477 1-1 1-1-.4477-1-1 .4477-1 1-1zM3 3h18c1.6569 0 3 1.3431 3 3v12c0 1.6569-1.3431 3-3 3H3c-1.6569 0-3-1.3431-3-3V6c0-1.6569 1.3431-3 3-3zm0 2c-.5523 0-1 .4477-1 1v12c0 .5523.4477 1 1 1h18c.5523 0 1-.4477 1-1V6c0-.5523-.4477-1-1-1H3z"/></svg>
